X:255
T: ZU STRASSBURG AUF DER SCHANZ
N: E1394
O: Europa, Mitteleuropa, Deutschland
R: Staende -, Soldaten - Lied, Deserteur
M: 4/4
L: 1/16
K: F
F2G2 | A4A4A4A4 | G8z4
G2A2 | B4B4B2d2c2B2 | A8z2
A2A2B2 | c2c2B2A2f4d4 | d6c2c4
A4 | A3GG2G2G2d2c2B2 | B6A2A4
F2A2 | c8B8 | A8z4

